X:922
T:Commodore, The
R:reel
C:Billy McComiskey and Brendan Mulvihill
Z:id:hn-reel-922
M:C|
L:1/8
K:D
~a3f ~g3e | fedf ecAb | ad~d2 bdad | cdef g2fg |
agfa gfeg | fedf ecAB | cAeA fAef |1 gece defg :|2 gece dBAG ||
|: FAde =f2df | e=c~c2 GEGc | ADFA dedB | ceag fdAG |
FAde =f2df | e=c~c2 gceg | aged cAef |1 gece dBAG :|2 gece defg ||
P:variations
|: ad~d2 ge~e2 | fd~d2 ecA2 | ad~d2 bdad | cdef gefg |
agfa gfeg | fedf ecAB | cAeA f2ef |1 gece defg :|2 gece d2AG ||
|: FAde =f2gf | e=ccB cBAG | FDFA d2Bd | ceag fdAG |
FAde =f2gf | e=ccB cdeg | aged cdef |1 gece d2AG :|2 gece defg ||

